X:14444
T:Rond a francois Lefeufre
D:transcribed from CD "Sonneurs de Vielle en Bretagne" SCM 024
Z:abc transcription Simon Wascher
N:please mail errors to simon.wascher@chello.at
M:2/4
L:1/8
K:C
g2fg|fe d2|gg fg|f2 d2|
g2 fg|fe d2|gg fg|f2 d2||
g2fg|fe d2|ce dc|Bc d2|
dg fg|fe de|dg fe|d2 c2:|
